X:1
T:Mary Golden Tree
M:4/4
L:1/16
K:C
 D4| G3 G B3 A G4 B3 A| G3 A G3 B, D4 D3 D| G4 B3 A G4 B3 A| G3 A G3 B, D4 D3 D|\
 G3 G G3 B d4 B3 A| G3- A G3- B, D4 D3 E| G3 G G3 G d4 B3- A| G12||\


